polaris-icons/icons/new-icons/CreditCardPercentMajor.svg

<svg width="20" height="20" viewBox="0 0 20 20" fill="none" xmlns="http://www.w3.org/2000/svg">
<path fill-rule="evenodd" clip-rule="evenodd" d="M5.25 4C3.73122 4 2.5 5.23122 2.5 6.75V13.25C2.5 14.7688 3.73122 16 5.25 16H10.3538C10.768 16 11.1038 15.6642 11.1038 15.25C11.1038 14.8358 10.768 14.5 10.3538 14.5H5.25C4.55964 14.5 4 13.9404 4 13.25V9.25H16C16 9.66421 16.3358 10 16.75 10C17.1642 10 17.5 9.66421 17.5 9.25V6.75C17.5 5.23122 16.2688 4 14.75 4H5.25ZM16 7.25V6.75C16 6.05964 15.4404 5.5 14.75 5.5H5.25C4.55964 5.5 4 6.05964 4 6.75V7.25H16Z" fill="#4A4A4A"/>
<path d="M16.4697 11.4697C16.7626 11.1768 17.2374 11.1768 17.5303 11.4697C17.8232 11.7626 17.8232 12.2374 17.5303 12.5303L13.5303 16.5303C13.2374 16.8232 12.7626 16.8232 12.4697 16.5303C12.1768 16.2374 12.1768 15.7626 12.4697 15.4697L16.4697 11.4697Z" fill="#4A4A4A"/>
<path d="M13 13C13.5523 13 14 12.5523 14 12C14 11.4477 13.5523 11 13 11C12.4477 11 12 11.4477 12 12C12 12.5523 12.4477 13 13 13Z" fill="#4A4A4A"/>
<path d="M18 16C18 16.5523 17.5523 17 17 17C16.4477 17 16 16.5523 16 16C16 15.4477 16.4477 15 17 15C17.5523 15 18 15.4477 18 16Z" fill="#4A4A4A"/>
<path d="M6.25 11.25C5.83579 11.25 5.5 11.5858 5.5 12C5.5 12.4142 5.83579 12.75 6.25 12.75H9C9.41421 12.75 9.75 12.4142 9.75 12C9.75 11.5858 9.41421 11.25 9 11.25H6.25Z" fill="#4A4A4A"/>
</svg>

<svg viewBox="0 0 20 20" xmlns="http://www.w3.org/2000/svg"><path fill-rule="evenodd" d="M5.25 4a2.75 2.75 0 0 0-2.75 2.75v6.5a2.75 2.75 0 0 0 2.75 2.75h5.104a.75.75 0 0 0 0-1.5h-5.104c-.69 0-1.25-.56-1.25-1.25v-4h12a.75.75 0 0 0 1.5 0v-2.5a2.75 2.75 0 0 0-2.75-2.75h-9.5Zm10.75 3.25v-.5c0-.69-.56-1.25-1.25-1.25h-9.5c-.69 0-1.25.56-1.25 1.25v.5h12Z" fill="#5C5F62"/><path d="M16.47 11.47a.75.75 0 1 1 1.06 1.06l-4 4a.75.75 0 1 1-1.06-1.06l4-4Z" fill="#5C5F62"/><path d="M13 13a1 1 0 1 0 0-2 1 1 0 0 0 0 2Z" fill="#5C5F62"/><path d="M18 16a1 1 0 1 1-2 0 1 1 0 0 1 2 0Z" fill="#5C5F62"/><path d="M6.25 11.25a.75.75 0 0 0 0 1.5h2.75a.75.75 0 0 0 0-1.5h-2.75Z" fill="#5C5F62"/></svg>
